X: 42882
T: Wilfred's Fiddle
R: jig
M: 6/8
K: Edorian
B,|:EFEG2A|BAB dcB|AdB AFD|A,DF dAF|
EFE G2A|BAB dcB|AdB AGF|1 GEE E2 B,:|2 GEE E2||
B|:efe edB|defg2a|bgb afd|Adf afd|
[1 efe edB|defg2a|bag agf|geee2B:|
[2 bgb afa|geg fdf|DFA dAF|GEEE2||

